boundlessconnect/icons/eye.svg

<svg height="41.142899" viewBox="0 0 64 41.142899" width="64" xmlns="http://www.w3.org/2000/svg"><path d="m59.428571 20.5715q-5.428571-8.4286-13.607142-12.6072 2.178571 3.7143 2.178571 8.0357 0 6.6072-4.696429 11.3036-4.696428 4.6964-11.303571 4.6964-6.607143 0-11.303571-4.6964-4.696429-4.6964-4.696429-11.3036 0-4.3214 2.178571-8.0357-8.178571 4.1786-13.6071424 12.6072 4.75 7.3214 11.9107144 11.6607 7.160714 4.3393 15.517857 4.3393 8.357143 0 15.517857-4.3393 7.160714-4.3393 11.910714-11.6607zm-25.714285-13.7143q0-.7143-.5-1.2143-.5-.5-1.214286-.5-4.464286 0-7.660714 3.1964-3.196429 3.1965-3.196429 7.6607 0 .7143.5 1.2143.5.5 1.214286.5.714286 0 1.214286-.5.5-.5.5-1.2143 0-3.0714 2.178571-5.25 2.178571-2.1785 5.25-2.1785.714286 0 1.214286-.5.5-.5.5-1.2143zm30.285714 13.7143q0 1.2143-.714286 2.4643-5 8.2142-13.446428 13.1607-8.446429 4.9464-17.839286 4.9464-9.392857 0-17.839286-4.9643-8.4464283-4.9643-13.44642829-13.1428-.71428571-1.25-.71428571-2.4643 0-1.2143.71428571-2.4643 4.99999999-8.1786 13.44642829-13.1429 8.446429-4.9643 17.839286-4.9643 9.392857 0 17.839286 4.9643 8.446428 4.9643 13.446428 13.1429.714286 1.25.714286 2.4643z"/></svg>

<?xml version="1.0" encoding="UTF-8" standalone="no"?>
<svg
   xmlns:dc="http://purl.org/dc/elements/1.1/"
   xmlns:cc="http://creativecommons.org/ns#"
   xmlns:rdf="http://www.w3.org/1999/02/22-rdf-syntax-ns#"
   xmlns:svg="http://www.w3.org/2000/svg"
   xmlns="http://www.w3.org/2000/svg"
   xmlns:sodipodi="http://sodipodi.sourceforge.net/DTD/sodipodi-0.dtd"
   xmlns:inkscape="http://www.inkscape.org/namespaces/inkscape"
   width="64"
   height="41.142899"
   viewBox="0 0 64 41.142899"
   id="svg3253"
   version="1.1"
   inkscape:version="0.48.5 r10040"
   sodipodi:docname="eye.svg">
  <metadata
     id="metadata3261">
    <rdf:RDF>
      <cc:Work
         rdf:about="">
        <dc:format>image/svg+xml</dc:format>
        <dc:type
           rdf:resource="http://purl.org/dc/dcmitype/StillImage" />
      </cc:Work>
    </rdf:RDF>
  </metadata>
  <defs
     id="defs3259" />
  <sodipodi:namedview
     pagecolor="#ffffff"
     bordercolor="#666666"
     borderopacity="1"
     objecttolerance="10"
     gridtolerance="10"
     guidetolerance="10"
     inkscape:pageopacity="0"
     inkscape:pageshadow="2"
     inkscape:window-width="912"
     inkscape:window-height="558"
     id="namedview3257"
     showgrid="false"
     fit-margin-top="0"
     fit-margin-left="0"
     fit-margin-right="0"
     fit-margin-bottom="0"
     inkscape:zoom="0.13169643"
     inkscape:cx="896"
     inkscape:cy="640"
     inkscape:window-x="2"
     inkscape:window-y="0"
     inkscape:window-maximized="0"
     inkscape:current-layer="svg3253" />
  <path
     d="M 59.428571,20.5715 Q 54,12.1429 45.821429,7.9643 48,11.6786 48,16 48,22.6072 43.303571,27.3036 38.607143,32 32,32 25.392857,32 20.696429,27.3036 16,22.6072 16,16 16,11.6786 18.178571,7.9643 10,12.1429 4.5714286,20.5715 q 4.75,7.3214 11.9107144,11.6607 7.160714,4.3393 15.517857,4.3393 8.357143,0 15.517857,-4.3393 7.160714,-4.3393 11.910714,-11.6607 z M 33.714286,6.8572 q 0,-0.7143 -0.5,-1.2143 -0.5,-0.5 -1.214286,-0.5 -4.464286,0 -7.660714,3.1964 -3.196429,3.1965 -3.196429,7.6607 0,0.7143 0.5,1.2143 0.5,0.5 1.214286,0.5 0.714286,0 1.214286,-0.5 0.5,-0.5 0.5,-1.2143 0,-3.0714 2.178571,-5.25 2.178571,-2.1785 5.25,-2.1785 0.714286,0 1.214286,-0.5 0.5,-0.5 0.5,-1.2143 z M 64,20.5715 q 0,1.2143 -0.714286,2.4643 -5,8.2142 -13.446428,13.1607 Q 41.392857,41.1429 32,41.1429 q -9.392857,0 -17.839286,-4.9643 Q 5.7142857,31.2143 0.71428571,23.0358 0,21.7858 0,20.5715 0,19.3572 0.71428571,18.1072 5.7142857,9.9286 14.160714,4.9643 22.607143,0 32,0 41.392857,0 49.839286,4.9643 58.285714,9.9286 63.285714,18.1072 64,19.3572 64,20.5715 z"
     id="path3255"
     inkscape:connector-curvature="0" />
</svg>
